Sources/FrostedUI/Resources/Icons.xcassets/collapseSidebar24.imageset/collapse-sidebar-24.svg

<svg width="24" height="24" viewBox="0 0 24 24" fill="none" xmlns="http://www.w3.org/2000/svg" data-fui-icon="true">
  <path
    d="M17.75 2C20.6495 2 23 4.35051 23 7.25V16.75C23 19.6495 20.6495 22 17.75 22H6.25C3.35051 22 1 19.6495 1 16.75V7.25C1 4.35051 3.35051 2 6.25 2H17.75ZM6.25 3.5C4.17893 3.5 2.5 5.17893 2.5 7.25V16.75C2.5 18.8211 4.17893 20.5 6.25 20.5H8V3.5H6.25ZM9.5 20.5H17.75C19.8211 20.5 21.5 18.8211 21.5 16.75V7.25C21.5 5.17893 19.8211 3.5 17.75 3.5H9.5V20.5Z"
    fill="currentColor"
  />
</svg>

<svg xmlns="http://www.w3.org/2000/svg" width="24" height="24" fill="none" data-fui-icon="true" viewBox="0 0 24 24"><path fill="currentColor" d="M17.75 2C20.65 2 23 4.35 23 7.25v9.5c0 2.9-2.35 5.25-5.25 5.25H6.25A5.25 5.25 0 0 1 1 16.75v-9.5C1 4.35 3.35 2 6.25 2zM6.25 3.5A3.75 3.75 0 0 0 2.5 7.25v9.5a3.75 3.75 0 0 0 3.75 3.75H8v-17zm3.25 17h8.25a3.75 3.75 0 0 0 3.75-3.75v-9.5a3.75 3.75 0 0 0-3.75-3.75H9.5z"/></svg>
